public/images/ava.svg

<svg width="40" height="40" viewBox="0 0 40 40" fill="none" xmlns="http://www.w3.org/2000/svg">
<circle cx="20" cy="20" r="20" fill="#301864"/>
<path d="M23.8776 27L22.7376 23.86H16.4376L15.2976 27H13.3176L18.5376 13H20.6376L25.8576 27H23.8776ZM17.0776 22.12H22.0976L19.5776 15.22L17.0776 22.12Z" fill="white"/>
</svg>

<svg width="40" height="40" fill="none" xmlns="http://www.w3.org/2000/svg"><circle cx="20" cy="20" r="20" fill="#301864"/><path d="m23.878 27-1.14-3.14h-6.3L15.298 27h-1.98l5.22-14h2.1l5.22 14h-1.98Zm-6.8-4.88h5.02l-2.52-6.9-2.5 6.9Z" fill="#fff"/></svg>
